assets/Man raising hand/Medium-Light/Flat/man_raising_hand_flat_medium-light.svg

<svg width="32" height="32" viewBox="0 0 32 32" fill="none" xmlns="http://www.w3.org/2000/svg">
<path d="M9.46733 10.9583C9.74256 10.3875 10.0842 9.86266 10.5113 9.3839C11.1377 8.70258 11.7071 8.21461 11.7166 8.20541C12.0583 7.91999 12.0962 7.41361 11.802 7.07295C11.5078 6.7415 10.9858 6.70467 10.6442 6.99009C10.6157 7.01771 10.2645 7.31233 9.80899 7.76347C9.74256 7.82792 9.62867 7.78189 9.63816 7.69902C9.79001 6.18908 9.92288 5.07504 10.0273 4.28324C10.0747 3.88734 9.89441 3.49144 9.49581 3.39016C9.0972 3.28889 8.68911 3.51906 8.57522 3.90575C8.57522 3.94258 8.4993 4.78042 8.32846 5.79318C8.30948 5.90366 8.2905 6.02336 8.28101 6.13384C8.27152 6.16146 8.24305 6.18908 8.20509 6.17987C8.17661 6.17067 8.15763 6.14305 8.16712 6.12463C8.26203 4.69755 8.37592 3.39937 8.37592 3.37175C8.45184 2.97585 8.1956 2.58916 7.7875 2.5155C7.37941 2.43264 6.9808 2.69043 6.90488 3.08633C6.8859 3.14158 6.81946 4.50421 6.69608 5.6827C6.69608 5.71032 6.64863 5.71032 6.64863 5.6827L6.60118 3.87813C6.57271 3.47303 6.23105 3.1692 5.82295 3.18761C5.39588 3.20602 5.0732 3.5651 5.10167 3.9702L5.22504 5.95891C5.22504 6.01415 5.13963 6.02336 5.13963 5.96811C5.05421 5.38807 4.99727 4.98297 4.99727 4.97376C4.94033 4.57786 4.5607 4.29245 4.14312 4.34769C3.73502 4.40293 3.45031 4.77121 3.50725 5.16711C3.754 6.92564 4.15261 9.79821 4.18108 10.1665C4.18108 10.1849 4.18108 10.1941 4.19057 10.2033C4.27599 10.7926 4.57019 11.3542 5.05421 11.7869C6.1741 12.7905 7.93935 12.726 8.98331 11.6488C9.18262 11.4463 9.34396 11.2069 9.46733 10.9583Z" fill="#EEBFAA"/>
<path d="M9 14H5V12.4217C5 12.1807 5.15385 12 5.33654 12H8.65385C8.84615 12 8.99038 12.1928 8.99038 12.4217V14H9Z" fill="#0092E7"/>
<path d="M21.5 21C24 21 29 24.5 29 30H11V26.5C11 26.2233 10.8299 25.9672 10.5843 25.8749L7.5 24.5C5 23.5 4 21 4 19.302V14.0145C4 13.4509 4.42517 13 4.93537 13L9.06463 13C9.58428 13 10 13.4611 10 14.0145V18C10 19.302 11 19.5 11 19.5L17 21H21.5Z" fill="#00A6ED"/>
<path d="M19.2672 24.2131C18.0154 24.2131 17 23.1977 17 21.9459V19.2672C17 18.0154 18.0154 17 19.2672 17C20.519 17 21.5345 18.0154 21.5345 19.2672V21.9459C21.5345 23.1977 20.519 24.2131 19.2672 24.2131Z" fill="#E4B29A"/>
<path d="M15.75 14C15.75 15.1046 14.8546 16 13.75 16C12.6454 16 11.75 15.1046 11.75 14C11.75 12.8954 12.6454 12 13.75 12C14.8546 12 15.75 12.8954 15.75 14Z" fill="#E4B29A"/>
<path d="M27.1882 14C27.1882 15.1046 26.2928 16 25.1882 16C24.0837 16 23.1882 15.1046 23.1882 14C23.1882 12.8954 24.0837 12 25.1882 12C26.2928 12 27.1882 12.8954 27.1882 14Z" fill="#E4B29A"/>
<path d="M18.9846 5.44653C15.6595 5.44653 13.0319 8.20984 13.2643 11.4585L13.7292 17.9854C13.9313 20.0356 15.5787 21.4915 17.5798 21.4915H21.4202C23.4213 21.4915 25.0687 20.0257 25.2708 17.9854L25.7357 11.4585C25.9681 8.20984 23.3405 5.44653 20.0154 5.44653H18.9846V5.44653Z" fill="#EEBFAA"/>
<path d="M25.7075 6.62079L25.2074 6.38556C24.8474 6.2162 24.5274 5.9998 24.2474 5.73635L23.2673 4.82369C22.5372 4.13684 21.4471 3.90162 20.4671 4.22152C19.837 4.42852 19.147 4.42852 18.5069 4.22152C17.6468 3.81694 16.6068 3.97689 15.9267 4.6167L14.7266 5.73635C14.4466 5.9998 14.1166 6.2162 13.7665 6.38556L13.2665 6.62079C12.3564 7.05359 11.8564 8.00389 12.0364 8.96359L12.7064 12.3978C12.7764 12.7366 13.0865 12.9906 13.4565 13C13.4565 13 13.3865 12.0215 13.3465 11.3911C13.3265 11.0712 13.4565 10.7513 13.7165 10.5443L13.9365 10.3655C14.2366 10.1115 14.4066 9.75394 14.4066 9.37759V8.40847C14.4066 8.13561 14.6066 7.90039 14.8866 7.83453C15.6467 7.65576 17.2568 7.35468 19.507 7.35468C21.7572 7.35468 23.3673 7.65576 24.1273 7.83453C24.4074 7.90039 24.6074 8.13561 24.6074 8.40847V9.36818C24.6074 9.74453 24.7774 10.1021 25.0774 10.3561L25.3074 10.5537C25.5675 10.7701 25.6975 11.0806 25.6775 11.4099C25.6375 12.0309 25.5675 13 25.5675 13C25.9275 12.9812 26.2275 12.7366 26.2975 12.3978L26.9676 8.96359C27.1376 8.00389 26.6275 7.05359 25.7075 6.62079Z" fill="#FFF9BA"/>
<path d="M14.9823 11.6875C15.1106 11.8554 15.2983 11.9443 15.4958 11.9443C15.634 11.9443 15.7723 11.9048 15.8809 11.8258C15.9006 11.806 16.4931 11.3814 17.3621 11.4802C17.7077 11.5197 18.0336 11.2728 18.0731 10.9173C18.1126 10.5618 17.8657 10.2458 17.5102 10.2063C16.1179 10.0384 15.1403 10.7692 15.1008 10.7988C14.8243 11.016 14.7749 11.411 14.9823 11.6875Z" fill="#A56953"/>
<path d="M23.1191 11.8259C23.2376 11.9147 23.366 11.9542 23.5042 11.9542C23.6919 11.9542 23.8894 11.8654 24.0177 11.7074C24.235 11.4309 24.1757 11.026 23.8992 10.8087C23.8531 10.7741 22.8868 10.049 21.4897 10.2162C21.1342 10.2557 20.8874 10.5717 20.9269 10.9272C20.9664 11.2827 21.2922 11.5296 21.6379 11.4901C22.497 11.3815 23.0895 11.7962 23.1191 11.8259Z" fill="#A56953"/>
<path d="M19.1092 13.3428L18.529 15.4058C18.4039 15.8258 18.6997 16.2582 19.1092 16.2582H19.9853C20.3949 16.2582 20.6907 15.8258 20.5655 15.4058L19.9739 13.3428C19.8374 12.8857 19.2458 12.8857 19.1092 13.3428Z" fill="#D19479"/>
<path d="M19.3599 17.9561C18.7295 17.9561 18.1595 17.7413 17.736 17.517C17.5843 17.4367 17.4229 17.6588 17.5403 17.7984C17.9745 18.3148 18.4309 18.8964 19.3599 18.8964C20.2888 18.8964 20.7695 18.382 21.1874 17.8762C21.3048 17.7341 21.1128 17.4947 20.9587 17.5729C20.5538 17.7782 20.0103 17.9561 19.3599 17.9561Z" fill="#990838"/>
<path d="M17.857 14.0057C18.1778 14.0057 18.4399 13.7289 18.3181 13.4323C18.0526 12.7855 17.4166 12.3301 16.6743 12.3301C15.9319 12.3301 15.2959 12.7855 15.0304 13.4323C14.9086 13.7289 15.1708 14.0057 15.4915 14.0057H17.857Z" fill="white"/>
<path d="M21.1221 14.0057C20.8014 14.0057 20.5393 13.7289 20.661 13.4323C20.9265 12.7855 21.5625 12.3301 22.3049 12.3301C23.0472 12.3301 23.6833 12.7855 23.9487 13.4323C24.0705 13.7289 23.8084 14.0057 23.4877 14.0057H21.1221Z" fill="white"/>
<path d="M15.8364 13.7263C15.8364 13.8228 15.8486 13.9164 15.8716 14.0056H17.857C17.9225 14.0056 17.9854 13.9941 18.0432 13.9732C18.0611 13.8938 18.0706 13.8112 18.0706 13.7263C18.0706 13.1094 17.5705 12.6093 16.9535 12.6093C16.3366 12.6093 15.8364 13.1094 15.8364 13.7263Z" fill="#7D4533"/>
<path d="M23.1426 13.7263C23.1426 13.8228 23.1304 13.9164 23.1074 14.0056H21.1221C21.0566 14.0056 20.9936 13.9941 20.9358 13.9732C20.9179 13.8938 20.9084 13.8112 20.9084 13.7263C20.9084 13.1094 21.4086 12.6093 22.0255 12.6093C22.6425 12.6093 23.1426 13.1094 23.1426 13.7263Z" fill="#7D4533"/>
<path d="M16.2833 13.7407C16.2833 13.8275 16.2998 13.9106 16.3299 13.9871H17.6331C17.6632 13.9106 17.6797 13.8275 17.6797 13.7407C17.6797 13.3626 17.3671 13.0562 16.9815 13.0562C16.5959 13.0562 16.2833 13.3626 16.2833 13.7407Z" fill="black"/>
<path d="M22.6958 13.7543C22.6958 13.8429 22.6793 13.9277 22.6492 14.0056H21.346C21.3159 13.9277 21.2994 13.8429 21.2994 13.7543C21.2994 13.3687 21.612 13.0562 21.9976 13.0562C22.3832 13.0562 22.6958 13.3687 22.6958 13.7543Z" fill="black"/>
<path d="M16.9536 13.1678C16.9536 13.3221 16.8285 13.4471 16.6743 13.4471C16.5201 13.4471 16.395 13.3221 16.395 13.1678C16.395 13.0136 16.5201 12.8885 16.6743 12.8885C16.8285 12.8885 16.9536 13.0136 16.9536 13.1678Z" fill="white"/>
<path d="M21.5345 13.1678C21.5345 13.3221 21.6595 13.4471 21.8137 13.4471C21.968 13.4471 22.093 13.3221 22.093 13.1678C22.093 13.0136 21.968 12.8885 21.8137 12.8885C21.6595 12.8885 21.5345 13.0136 21.5345 13.1678Z" fill="white"/>
</svg>

<svg xmlns="http://www.w3.org/2000/svg" width="32" height="32" fill="none"><path fill="#EEBFAA" d="M9.467 10.958a6.737 6.737 0 0 1 1.044-1.574c.627-.681 1.196-1.17 1.206-1.179a.793.793 0 0 0 .085-1.132.842.842 0 0 0-1.158-.083c-.028.028-.38.322-.835.773-.066.065-.18.019-.17-.064.151-1.51.284-2.624.388-3.416.048-.396-.133-.792-.531-.893a.763.763 0 0 0-.92.516c0 .037-.077.874-.248 1.887-.019.11-.037.23-.047.34-.01.028-.038.056-.076.047-.028-.01-.047-.037-.038-.055.095-1.427.209-2.726.209-2.753a.728.728 0 0 0-.588-.857.741.741 0 0 0-.883.571c-.02.056-.086 1.418-.209 2.597 0 .027-.047.027-.047 0L6.6 3.878a.741.741 0 0 0-.778-.69.744.744 0 0 0-.721.782l.123 1.989c0 .055-.085.064-.085.01-.086-.58-.143-.986-.143-.995a.756.756 0 0 0-.854-.626.73.73 0 0 0-.636.82c.247 1.758.646 4.63.674 4.998 0 .019 0 .028.01.037.085.59.38 1.151.863 1.584 1.12 1.003 2.885.939 3.93-.138.199-.203.36-.442.483-.69Z"/><path fill="#0092E7" d="M9 14H5v-1.578c0-.241.154-.422.337-.422h3.317c.192 0 .336.193.336.422V14H9Z"/><path fill="#00A6ED" d="M21.5 21c2.5 0 7.5 3.5 7.5 9H11v-3.5a.67.67 0 0 0-.416-.625L7.5 24.5C5 23.5 4 21 4 19.302v-5.287C4 13.45 4.425 13 4.935 13h4.13c.52 0 .935.461.935 1.014V18c0 1.302 1 1.5 1 1.5l6 1.5h4.5Z"/><path fill="#E4B29A" d="M19.267 24.213A2.268 2.268 0 0 1 17 21.946v-2.679a2.268 2.268 0 0 1 4.535 0v2.679a2.268 2.268 0 0 1-2.268 2.267ZM15.75 14a2 2 0 1 1-4 0 2 2 0 0 1 4 0ZM27.188 14a2 2 0 1 1-4 0 2 2 0 0 1 4 0Z"/><path fill="#EEBFAA" d="M18.985 5.447c-3.325 0-5.953 2.763-5.72 6.012l.464 6.526c.202 2.05 1.85 3.506 3.85 3.506h3.841c2.001 0 3.649-1.465 3.85-3.506l.466-6.526c.232-3.25-2.396-6.012-5.72-6.012h-1.031Z"/><path fill="#FFF9BA" d="m25.707 6.62-.5-.234a3.67 3.67 0 0 1-.96-.65l-.98-.912c-.73-.687-1.82-.922-2.8-.602-.63.207-1.32.207-1.96 0a2.342 2.342 0 0 0-2.58.395l-1.2 1.12c-.28.263-.61.48-.96.649l-.5.235c-.91.433-1.41 1.383-1.23 2.343l.67 3.434c.07.339.38.593.75.602 0 0-.07-.979-.11-1.609a1 1 0 0 1 .37-.847l.22-.178c.3-.255.47-.612.47-.988v-.97c0-.272.2-.508.48-.573.76-.18 2.37-.48 4.62-.48s3.86.3 4.62.48c.28.065.48.3.48.573v.96c0 .377.17.734.47.988l.23.198c.26.216.39.527.37.856-.04.62-.11 1.59-.11 1.59a.773.773 0 0 0 .73-.602l.67-3.434c.17-.96-.34-1.91-1.26-2.343Z"/><path fill="#A56953" d="M14.982 11.688a.658.658 0 0 0 .899.138c.02-.02.612-.445 1.481-.346a.642.642 0 0 0 .148-1.274c-1.392-.168-2.37.563-2.41.593a.641.641 0 0 0-.118.889ZM23.12 11.826a.624.624 0 0 0 .384.128.675.675 0 0 0 .514-.247.644.644 0 0 0-.119-.898c-.046-.035-1.012-.76-2.41-.593a.642.642 0 0 0 .148 1.274c.86-.108 1.453.306 1.482.336Z"/><path fill="#D19479" d="m19.11 13.343-.581 2.063c-.125.42.17.852.58.852h.876c.41 0 .706-.432.58-.852l-.591-2.063a.444.444 0 0 0-.865 0Z"/><path fill="#990838" d="M19.36 17.956c-.63 0-1.2-.215-1.624-.439-.152-.08-.313.142-.196.281.434.517.89 1.098 1.82 1.098.929 0 1.41-.514 1.827-1.02.118-.142-.074-.381-.228-.303a3.53 3.53 0 0 1-1.6.383Z"/><path fill="#fff" d="M17.857 14.006c.32 0 .583-.277.461-.574a1.777 1.777 0 0 0-3.288 0c-.121.297.14.574.462.574h2.365ZM21.122 14.006c-.32 0-.583-.277-.461-.574a1.777 1.777 0 0 1 3.288 0c.121.297-.14.574-.461.574h-2.366Z"/><path fill="#7D4533" d="M15.836 13.726c0 .097.013.19.036.28h1.985a.547.547 0 0 0 .186-.033 1.117 1.117 0 1 0-2.207-.247ZM23.143 13.726c0 .097-.013.19-.036.28h-1.985a.548.548 0 0 1-.186-.033 1.117 1.117 0 1 1 2.207-.247Z"/><path fill="#000" d="M16.283 13.74c0 .088.017.17.047.247h1.303a.671.671 0 0 0 .047-.246.691.691 0 0 0-.698-.685.691.691 0 0 0-.699.685ZM22.696 13.754a.696.696 0 0 1-.047.252h-1.303a.698.698 0 1 1 1.35-.251Z"/><path fill="#fff" d="M16.954 13.168a.28.28 0 1 1-.559 0 .28.28 0 0 1 .559 0ZM21.535 13.168a.28.28 0 1 0 .558 0 .28.28 0 0 0-.558 0Z"/></svg>
